X:7750
T:Jack's Morning Feast
R:Jig
S:
H:
N:
D:Cherish The Ladies
Z:Adrian Scahill
M:6/8
L:1/8
K:G
BGB cde|def gdc|BGB cAG|FGA AFD|\
BGB cde|def gdc|BGB cAF|AGF G3:||\
bgb agf|gfe dBd|bgb agf|efg afd|\
bgb agf|gfe dBd|cde dBG|1 AGF G3:|2 AGF G2d||\
de/2f/2g afd|aba afe|de/2f/2g afd|1 bc'b a2f|\
de/2f/2g afd|aba afe|dB/2c/2d cde|dBG G2d:|2 ed^c d2=c|\
B3 cde|def gab|c'ba agf|gdB G2A||


